resources/haticons/SVG/happy.svg

<!-- Generated by IcoMoon.io -->
<svg version="1.1" xmlns="http://www.w3.org/2000/svg" width="24" height="24" viewBox="0 0 24 24">
<title>happy</title>
<path d="M12 24c6.627 0 12-5.373 12-12s-5.373-12-12-12-12 5.373-12 12 5.373 12 12 12zM12 2.25c5.385 0 9.75 4.365 9.75 9.75s-4.365 9.75-9.75 9.75-9.75-4.365-9.75-9.75 4.365-9.75 9.75-9.75zM12 14.033c2.718 0 5.302-0.722 7.5-1.99-0.342 4.182-3.589 7.457-7.5 7.457s-7.158-3.278-7.5-7.46c2.198 1.268 4.782 1.994 7.5 1.994zM6 8.25c0-1.243 0.672-2.25 1.5-2.25s1.5 1.007 1.5 2.25c0 1.243-0.672 2.25-1.5 2.25s-1.5-1.007-1.5-2.25zM15 8.25c0-1.243 0.672-2.25 1.5-2.25s1.5 1.007 1.5 2.25c0 1.243-0.672 2.25-1.5 2.25s-1.5-1.007-1.5-2.25z"></path>
</svg>

<svg xmlns="http://www.w3.org/2000/svg" width="24" height="24"><path d="M12 24c6.627 0 12-5.373 12-12S18.627 0 12 0 0 5.373 0 12s5.373 12 12 12zm0-21.75c5.385 0 9.75 4.365 9.75 9.75s-4.365 9.75-9.75 9.75S2.25 17.385 2.25 12 6.615 2.25 12 2.25zm0 11.783a15.02 15.02 0 0 0 7.5-1.99c-.342 4.182-3.589 7.457-7.5 7.457s-7.158-3.278-7.5-7.46a15.022 15.022 0 0 0 7.5 1.994zM6 8.25C6 7.007 6.672 6 7.5 6S9 7.007 9 8.25s-.672 2.25-1.5 2.25S6 9.493 6 8.25zm9 0C15 7.007 15.672 6 16.5 6S18 7.007 18 8.25s-.672 2.25-1.5 2.25S15 9.493 15 8.25z"/></svg>
